css/elements/resume/SWC.svg

<svg viewBox="0 0 332.84 331.34" xmlns="http://www.w3.org/2000/svg"><g fill="#fff"><path d="m120.5 245.56 98.5-161.08s1.51-2.86-2.11-3l-12.1-.08-2.31.73.28-.46-103.83 170.03h.07l-.26.45h15s3.8.13 6.76-6.59z"/><path d="m253.84 164.9a4.91 4.91 0 0 1 -.22 4.74l-48.38 79.36s-2.13 3.74 3 3.75h19.57s4.55 0 6.72-3.47l48.56-79.28a7.07 7.07 0 0 0 -.35-6.45l-43-69.9s-1.21-1.88-2.75.47l-13.49 22.06 11.63 17.72z"/><path d="m252.56 0-37.46 61.37h.23l-.28.46 25.41.07s3.87-.18 5.77 2.85l60.06 98.79s2.94 4.42-.38 7.9l-59 96.48s-2.7 4-6.33 4.14h-73.25l62.47-102.3a7.63 7.63 0 0 0 -.81-6.86l-6-9.12-11.7-17.66-81.89 133.94s-2.27 2.69-4.81 2.18l-37.87.43.26-.45h-.58l-36.08 59.12h282.52v-331.34z"/><path d="m223.47 116.17-12.18 19.95 12.19-19.94z"/><path d="m202.76 81.67h.1l12.19-19.84h-.1z"/><path d="m87.01 272.22 11.74-20.07h-.03l-11.74 20.07h.02z"/><path d="m86.44 214.13-32-43.67c-2.46-1.91-.46-5.91-.46-5.91l47.58-78c3.66-5.58-3-5.14-3-5.14h-18.11a9.6 9.6 0 0 0 -7.45 3.59l-47.77 77.84a7.84 7.84 0 0 0 0 8.43l41.9 68.42c1.92 3.12 3.76 0 3.76 0l106.37-174.32a8.34 8.34 0 0 1 6-4h31.84l-12.39 20.3-4.19-.17c-7.1-.37-9.81 4.42-9.81 4.42l-98.17 160.36c-4.31 6.66-.39 5.42-.39 5.42h8.78l-12.53 20.53-19.84.09a6.51 6.51 0 0 1 -5.33-2.91l-59.43-97.74c-3.64-5.86-.64-8.21-.64-8.21l58.78-96.13c1.69-5.91 8.83-5.19 8.83-5.19h71.47l-60.38 98.69c-4.28 6.88-1.28 10.48-1.28 10.48l19.87 23.2z"/></g></svg>

<svg xmlns="http://www.w3.org/2000/svg" viewBox="0 0 332.84 331.34">
  <defs>
    <style>
      .cls-1 {
        fill: #fff;
      }
    </style>
  </defs>
  <g id="Layer_2" data-name="Layer 2">
    <g id="Layer_1-2" data-name="Layer 1">
      <path class="cls-1" d="M120.5,245.56,219,84.48s1.51-2.86-2.11-3l-12.1-.08-2.31.73.28-.46h0L98.93,251.7H99l-.26.45h15S117.54,252.28,120.5,245.56Z"/>
      <path class="cls-1" d="M253.84,164.9a4.91,4.91,0,0,1-.22,4.74L205.24,249s-2.13,3.74,3,3.75h19.57s4.55,0,6.72-3.47L283.09,170a7.07,7.07,0,0,0-.35-6.45l-43-69.9s-1.21-1.88-2.75.47l-13.49,22.06,11.63,17.72Z"/>
      <path class="cls-1" d="M252.56,0,215.1,61.37h.23l-.28.46,25.41.07s3.87-.18,5.77,2.85l60.06,98.79s2.94,4.42-.38,7.9l-59,96.48s-2.7,4-6.33,4.14H167.33l62.47-102.3a7.63,7.63,0,0,0-.81-6.86l-6-9.12-11.7-17.66L129.4,270.06s-2.27,2.69-4.81,2.18l-37.87.43.26-.45H86.4L50.32,331.34H332.84V0Z"/>
      <polygon class="cls-1" points="223.47 116.17 211.29 136.12 211.29 136.12 223.48 116.18 223.47 116.17"/>
      <polygon class="cls-1" points="202.76 81.67 202.86 81.67 215.05 61.83 214.95 61.83 202.76 81.67"/>
      <polygon class="cls-1" points="87.01 272.22 98.75 252.15 98.72 252.15 98.72 252.15 86.98 272.22 87 272.22 87.01 272.22"/>
      <path class="cls-1" d="M86.44,214.13l-32-43.67c-2.46-1.91-.46-5.91-.46-5.91l47.58-78c3.66-5.58-3-5.14-3-5.14H80.45A9.6,9.6,0,0,0,73,85L25.23,162.84a7.84,7.84,0,0,0,0,8.43l41.9,68.42c1.92,3.12,3.76,0,3.76,0L177.26,65.37a8.34,8.34,0,0,1,6-4H215.1l-12.39,20.3-4.19-.17c-7.1-.37-9.81,4.42-9.81,4.42L90.54,246.28c-4.31,6.66-.39,5.42-.39,5.42h8.78L86.4,272.23l-19.84.09a6.51,6.51,0,0,1-5.33-2.91L1.8,171.67c-3.64-5.86-.64-8.21-.64-8.21L59.94,67.33c1.69-5.91,8.83-5.19,8.83-5.19h71.47L79.86,160.83c-4.28,6.88-1.28,10.48-1.28,10.48l19.87,23.2Z"/>
    </g>
  </g>
</svg>
